images/29672.svg

<?xml version="1.0" encoding="UTF-8"?>
<svg xmlns="http://www.w3.org/2000/svg" xmlns:xlink="http://www.w3.org/1999/xlink" width="300pt" height="300pt" viewBox="0 0 300 300" version="1.1">
<defs>
<g>
<symbol overflow="visible" id="glyph0-0">
<path style="stroke:none;" d="M 0.453125 1.59375 L 0.453125 -6.34375 L 4.953125 -6.34375 L 4.953125 1.59375 Z M 0.953125 1.09375 L 4.453125 1.09375 L 4.453125 -5.84375 L 0.953125 -5.84375 Z M 0.953125 1.09375 "/>
</symbol>
<symbol overflow="visible" id="glyph0-1">
<path style="stroke:none;" d="M 0.890625 -6.5625 L 4.65625 -6.5625 L 4.65625 -5.8125 L 1.765625 -5.8125 L 1.765625 -3.875 L 4.375 -3.875 L 4.375 -3.140625 L 1.765625 -3.140625 L 1.765625 0 L 0.890625 0 Z M 0.890625 -6.5625 "/>
</symbol>
<symbol overflow="visible" id="glyph0-2">
<path style="stroke:none;" d="M 0.890625 -6.5625 L 2.078125 -6.5625 L 4.984375 -1.078125 L 4.984375 -6.5625 L 5.84375 -6.5625 L 5.84375 0 L 4.65625 0 L 1.75 -5.484375 L 1.75 0 L 0.890625 0 Z M 0.890625 -6.5625 "/>
</symbol>
<symbol overflow="visible" id="glyph0-3">
<path style="stroke:none;" d="M 3.546875 -5.953125 C 2.898438 -5.953125 2.382812 -5.710938 2 -5.234375 C 1.625 -4.753906 1.4375 -4.101562 1.4375 -3.28125 C 1.4375 -2.445312 1.625 -1.789062 2 -1.3125 C 2.382812 -0.832031 2.898438 -0.59375 3.546875 -0.59375 C 4.191406 -0.59375 4.703125 -0.832031 5.078125 -1.3125 C 5.453125 -1.789062 5.640625 -2.445312 5.640625 -3.28125 C 5.640625 -4.101562 5.453125 -4.753906 5.078125 -5.234375 C 4.703125 -5.710938 4.191406 -5.953125 3.546875 -5.953125 Z M 3.546875 -6.6875 C 4.460938 -6.6875 5.195312 -6.375 5.75 -5.75 C 6.300781 -5.132812 6.578125 -4.3125 6.578125 -3.28125 C 6.578125 -2.238281 6.300781 -1.410156 5.75 -0.796875 C 5.195312 -0.179688 4.460938 0.125 3.546875 0.125 C 2.617188 0.125 1.878906 -0.179688 1.328125 -0.796875 C 0.773438 -1.410156 0.5 -2.238281 0.5 -3.28125 C 0.5 -4.3125 0.773438 -5.132812 1.328125 -5.75 C 1.878906 -6.375 2.617188 -6.6875 3.546875 -6.6875 Z M 3.546875 -6.6875 "/>
</symbol>
</g>
</defs>
<g id="surface22209">
<rect x="0" y="0" width="300" height="300" style="fill:rgb(100%,100%,100%);fill-opacity:1;stroke:none;"/>
<path style="fill:none;stroke-width:1.2;stroke-linecap:butt;stroke-linejoin:miter;stroke:rgb(20%,80%,80%);stroke-opacity:1;stroke-miterlimit:10;" d="M 264.75 102.417969 L 256.140625 111.585938 "/>
<path style="fill:none;stroke-width:1.2;stroke-linecap:butt;stroke-linejoin:miter;stroke:rgb(0%,0%,0%);stroke-opacity:1;stroke-miterlimit:10;" d="M 256.140625 111.585938 L 247.53125 120.75 "/>
<path style=" stroke:none;fill-rule:nonzero;fill:rgb(100%,100%,100%);fill-opacity:1;" d="M 261.75 96.917969 L 267.75 96.917969 L 267.75 107.917969 L 261.75 107.917969 Z M 261.75 96.917969 "/>
<g style="fill:rgb(20%,80%,80%);fill-opacity:1;">
  <use xlink:href="#glyph0-1" x="261.75" y="105.581055"/>
</g>
<path style="fill:none;stroke-width:1.2;stroke-linecap:butt;stroke-linejoin:miter;stroke:rgb(0%,0%,0%);stroke-opacity:1;stroke-miterlimit:10;" d="M 247.53125 120.75 L 254.800781 144.828125 "/>
<path style="fill:none;stroke-width:1.2;stroke-linecap:butt;stroke-linejoin:miter;stroke:rgb(0%,0%,0%);stroke-opacity:1;stroke-miterlimit:10;" d="M 242.59375 124.867188 L 248.410156 144.128906 "/>
<path style="fill:none;stroke-width:1.2;stroke-linecap:butt;stroke-linejoin:miter;stroke:rgb(0%,0%,0%);stroke-opacity:1;stroke-miterlimit:10;" d="M 223.050781 115.007812 L 247.53125 120.75 "/>
<path style="fill:none;stroke-width:1.2;stroke-linecap:butt;stroke-linejoin:miter;stroke:rgb(0%,0%,0%);stroke-opacity:1;stroke-miterlimit:10;" d="M 254.800781 144.828125 L 237.582031 163.160156 "/>
<path style="fill:none;stroke-width:1.2;stroke-linecap:butt;stroke-linejoin:miter;stroke:rgb(0%,0%,0%);stroke-opacity:1;stroke-miterlimit:10;" d="M 237.582031 163.160156 L 213.097656 157.414062 "/>
<path style="fill:none;stroke-width:1.2;stroke-linecap:butt;stroke-linejoin:miter;stroke:rgb(0%,0%,0%);stroke-opacity:1;stroke-miterlimit:10;" d="M 236.488281 156.824219 L 216.898438 152.226562 "/>
<path style="fill:none;stroke-width:1.2;stroke-linecap:butt;stroke-linejoin:miter;stroke:rgb(0%,0%,0%);stroke-opacity:1;stroke-miterlimit:10;" d="M 213.097656 157.414062 L 205.832031 133.339844 "/>
<path style="fill:none;stroke-width:1.2;stroke-linecap:butt;stroke-linejoin:miter;stroke:rgb(0%,0%,0%);stroke-opacity:1;stroke-miterlimit:10;" d="M 213.097656 157.414062 L 195.882812 175.746094 "/>
<path style="fill:none;stroke-width:1.2;stroke-linecap:butt;stroke-linejoin:miter;stroke:rgb(0%,0%,0%);stroke-opacity:1;stroke-miterlimit:10;" d="M 205.832031 133.339844 L 223.050781 115.007812 "/>
<path style="fill:none;stroke-width:1.2;stroke-linecap:butt;stroke-linejoin:miter;stroke:rgb(0%,0%,0%);stroke-opacity:1;stroke-miterlimit:10;" d="M 211.867188 135.554688 L 225.640625 120.890625 "/>
<path style="fill:none;stroke-width:1.2;stroke-linecap:butt;stroke-linejoin:miter;stroke:rgb(0%,0%,0%);stroke-opacity:1;stroke-miterlimit:10;" d="M 195.882812 175.746094 L 198.238281 188.097656 "/>
<path style="fill:none;stroke-width:1.2;stroke-linecap:butt;stroke-linejoin:miter;stroke:rgb(0%,0%,100%);stroke-opacity:1;stroke-miterlimit:10;" d="M 198.238281 188.097656 L 200.59375 200.449219 "/>
<path style="fill:none;stroke-width:1.2;stroke-linecap:butt;stroke-linejoin:miter;stroke:rgb(0%,0%,0%);stroke-opacity:1;stroke-miterlimit:10;" d="M 170.933594 172.59375 L 195.882812 175.746094 "/>
<path style="fill:none;stroke-width:1.2;stroke-linecap:butt;stroke-linejoin:miter;stroke:rgb(0%,0%,0%);stroke-opacity:1;stroke-miterlimit:10;" d="M 172.683594 178.777344 L 192.644531 181.300781 "/>
<path style="fill:none;stroke-width:1.2;stroke-linecap:butt;stroke-linejoin:miter;stroke:rgb(0%,0%,100%);stroke-opacity:1;stroke-miterlimit:10;" d="M 200.59375 200.449219 L 189.574219 206.507812 "/>
<path style="fill:none;stroke-width:1.2;stroke-linecap:butt;stroke-linejoin:miter;stroke:rgb(0%,0%,0%);stroke-opacity:1;stroke-miterlimit:10;" d="M 189.574219 206.507812 L 178.554688 212.5625 "/>
<path style="fill:none;stroke-width:1.2;stroke-linecap:butt;stroke-linejoin:miter;stroke:rgb(0%,0%,100%);stroke-opacity:1;stroke-miterlimit:10;" d="M 195.539062 196.476562 L 186.722656 201.320312 "/>
<path style="fill:none;stroke-width:1.2;stroke-linecap:butt;stroke-linejoin:miter;stroke:rgb(0%,0%,0%);stroke-opacity:1;stroke-miterlimit:10;" d="M 186.722656 201.320312 L 177.90625 206.167969 "/>
<path style=" stroke:none;fill-rule:nonzero;fill:rgb(100%,100%,100%);fill-opacity:1;" d="M 197.59375 194.949219 L 204.59375 194.949219 L 204.59375 205.949219 L 197.59375 205.949219 Z M 197.59375 194.949219 "/>
<g style="fill:rgb(0%,0%,100%);fill-opacity:1;">
  <use xlink:href="#glyph0-2" x="197.59375" y="203.612305"/>
</g>
<path style="fill:none;stroke-width:1.2;stroke-linecap:butt;stroke-linejoin:miter;stroke:rgb(0%,0%,0%);stroke-opacity:1;stroke-miterlimit:10;" d="M 178.554688 212.5625 L 169.386719 203.957031 "/>
<path style="fill:none;stroke-width:1.2;stroke-linecap:butt;stroke-linejoin:miter;stroke:rgb(100%,0%,0%);stroke-opacity:1;stroke-miterlimit:10;" d="M 169.386719 203.957031 L 160.222656 195.347656 "/>
<path style="fill:none;stroke-width:1.2;stroke-linecap:butt;stroke-linejoin:miter;stroke:rgb(100%,0%,0%);stroke-opacity:1;stroke-miterlimit:10;" d="M 160.222656 195.347656 L 165.578125 183.96875 "/>
<path style="fill:none;stroke-width:1.2;stroke-linecap:butt;stroke-linejoin:miter;stroke:rgb(0%,0%,0%);stroke-opacity:1;stroke-miterlimit:10;" d="M 165.578125 183.96875 L 170.933594 172.59375 "/>
<path style=" stroke:none;fill-rule:nonzero;fill:rgb(100%,100%,100%);fill-opacity:1;" d="M 156.222656 189.847656 L 164.222656 189.847656 L 164.222656 200.847656 L 156.222656 200.847656 Z M 156.222656 189.847656 "/>
<g style="fill:rgb(100%,0%,0%);fill-opacity:1;">
  <use xlink:href="#glyph0-3" x="156.222656" y="198.510742"/>
</g>
<path style="fill:none;stroke-width:1.2;stroke-linecap:butt;stroke-linejoin:miter;stroke:rgb(0%,0%,0%);stroke-opacity:1;stroke-miterlimit:10;" d="M 170.933594 172.59375 L 158.816406 150.554688 "/>
<path style="fill:none;stroke-width:1.2;stroke-linecap:butt;stroke-linejoin:miter;stroke:rgb(0%,0%,0%);stroke-opacity:1;stroke-miterlimit:10;" d="M 158.816406 150.554688 L 171.847656 129.042969 "/>
<path style="fill:none;stroke-width:1.2;stroke-linecap:butt;stroke-linejoin:miter;stroke:rgb(0%,0%,0%);stroke-opacity:1;stroke-miterlimit:10;" d="M 158.816406 150.554688 L 133.675781 150.023438 "/>
<path style="fill:none;stroke-width:1.2;stroke-linecap:butt;stroke-linejoin:miter;stroke:rgb(0%,0%,0%);stroke-opacity:1;stroke-miterlimit:10;" d="M 156.429688 144.585938 L 136.3125 144.160156 "/>
<path style="fill:none;stroke-width:1.2;stroke-linecap:butt;stroke-linejoin:miter;stroke:rgb(0%,0%,0%);stroke-opacity:1;stroke-miterlimit:10;" d="M 171.847656 129.042969 L 159.734375 107.003906 "/>
<path style="fill:none;stroke-width:1.2;stroke-linecap:butt;stroke-linejoin:miter;stroke:rgb(0%,0%,0%);stroke-opacity:1;stroke-miterlimit:10;" d="M 165.449219 129.6875 L 155.757812 112.058594 "/>
<path style="fill:none;stroke-width:1.2;stroke-linecap:butt;stroke-linejoin:miter;stroke:rgb(0%,0%,0%);stroke-opacity:1;stroke-miterlimit:10;" d="M 159.734375 107.003906 L 134.589844 106.476562 "/>
<path style="fill:none;stroke-width:1.2;stroke-linecap:butt;stroke-linejoin:miter;stroke:rgb(0%,0%,0%);stroke-opacity:1;stroke-miterlimit:10;" d="M 134.589844 106.476562 L 128.074219 117.230469 "/>
<path style="fill:none;stroke-width:1.2;stroke-linecap:butt;stroke-linejoin:miter;stroke:rgb(0%,0%,100%);stroke-opacity:1;stroke-miterlimit:10;" d="M 128.074219 117.230469 L 121.5625 127.984375 "/>
<path style="fill:none;stroke-width:1.2;stroke-linecap:butt;stroke-linejoin:miter;stroke:rgb(0%,0%,100%);stroke-opacity:1;stroke-miterlimit:10;" d="M 118.160156 87.4375 L 126.375 96.957031 "/>
<path style="fill:none;stroke-width:1.2;stroke-linecap:butt;stroke-linejoin:miter;stroke:rgb(0%,0%,0%);stroke-opacity:1;stroke-miterlimit:10;" d="M 126.375 96.957031 L 134.589844 106.476562 "/>
<path style="fill:none;stroke-width:1.2;stroke-linecap:butt;stroke-linejoin:miter;stroke:rgb(0%,0%,100%);stroke-opacity:1;stroke-miterlimit:10;" d="M 115.320312 93.207031 L 121.894531 100.820312 "/>
<path style="fill:none;stroke-width:1.2;stroke-linecap:butt;stroke-linejoin:miter;stroke:rgb(0%,0%,0%);stroke-opacity:1;stroke-miterlimit:10;" d="M 121.894531 100.820312 L 128.46875 108.4375 "/>
<path style="fill:none;stroke-width:1.2;stroke-linecap:butt;stroke-linejoin:miter;stroke:rgb(0%,0%,100%);stroke-opacity:1;stroke-miterlimit:10;" d="M 121.5625 127.984375 L 127.617188 139.003906 "/>
<path style="fill:none;stroke-width:1.2;stroke-linecap:butt;stroke-linejoin:miter;stroke:rgb(0%,0%,0%);stroke-opacity:1;stroke-miterlimit:10;" d="M 127.617188 139.003906 L 133.675781 150.023438 "/>
<path style="fill:none;stroke-width:1.2;stroke-linecap:butt;stroke-linejoin:miter;stroke:rgb(0%,0%,100%);stroke-opacity:1;stroke-miterlimit:10;" d="M 121.5625 127.984375 L 109.320312 125.113281 "/>
<path style="fill:none;stroke-width:1.2;stroke-linecap:butt;stroke-linejoin:miter;stroke:rgb(0%,0%,0%);stroke-opacity:1;stroke-miterlimit:10;" d="M 109.320312 125.113281 L 97.078125 122.242188 "/>
<path style=" stroke:none;fill-rule:nonzero;fill:rgb(100%,100%,100%);fill-opacity:1;" d="M 118.5625 122.484375 L 125.5625 122.484375 L 125.5625 133.484375 L 118.5625 133.484375 Z M 118.5625 122.484375 "/>
<g style="fill:rgb(0%,0%,100%);fill-opacity:1;">
  <use xlink:href="#glyph0-2" x="118.5625" y="131.147461"/>
</g>
<path style="fill:none;stroke-width:1.2;stroke-linecap:butt;stroke-linejoin:miter;stroke:rgb(0%,0%,0%);stroke-opacity:1;stroke-miterlimit:10;" d="M 97.078125 122.242188 L 96.027344 109.710938 "/>
<path style="fill:none;stroke-width:1.2;stroke-linecap:butt;stroke-linejoin:miter;stroke:rgb(0%,0%,100%);stroke-opacity:1;stroke-miterlimit:10;" d="M 96.027344 109.710938 L 94.972656 97.179688 "/>
<path style="fill:none;stroke-width:1.2;stroke-linecap:butt;stroke-linejoin:miter;stroke:rgb(0%,0%,0%);stroke-opacity:1;stroke-miterlimit:10;" d="M 102.761719 119.242188 L 101.921875 109.214844 "/>
<path style="fill:none;stroke-width:1.2;stroke-linecap:butt;stroke-linejoin:miter;stroke:rgb(0%,0%,100%);stroke-opacity:1;stroke-miterlimit:10;" d="M 101.921875 109.214844 L 101.082031 99.191406 "/>
<path style="fill:none;stroke-width:1.2;stroke-linecap:butt;stroke-linejoin:miter;stroke:rgb(0%,0%,0%);stroke-opacity:1;stroke-miterlimit:10;" d="M 97.078125 122.242188 L 87.558594 130.457031 "/>
<path style="fill:none;stroke-width:1.2;stroke-linecap:butt;stroke-linejoin:miter;stroke:rgb(0%,0%,100%);stroke-opacity:1;stroke-miterlimit:10;" d="M 87.558594 130.457031 L 78.039062 138.671875 "/>
<path style="fill:none;stroke-width:1.2;stroke-linecap:butt;stroke-linejoin:miter;stroke:rgb(0%,0%,100%);stroke-opacity:1;stroke-miterlimit:10;" d="M 94.972656 97.179688 L 118.160156 87.4375 "/>
<path style=" stroke:none;fill-rule:nonzero;fill:rgb(100%,100%,100%);fill-opacity:1;" d="M 91.972656 91.679688 L 98.972656 91.679688 L 98.972656 102.679688 L 91.972656 102.679688 Z M 91.972656 91.679688 "/>
<g style="fill:rgb(0%,0%,100%);fill-opacity:1;">
  <use xlink:href="#glyph0-2" x="91.972656" y="100.342773"/>
</g>
<path style=" stroke:none;fill-rule:nonzero;fill:rgb(100%,100%,100%);fill-opacity:1;" d="M 115.160156 81.9375 L 122.160156 81.9375 L 122.160156 92.9375 L 115.160156 92.9375 Z M 115.160156 81.9375 "/>
<g style="fill:rgb(0%,0%,100%);fill-opacity:1;">
  <use xlink:href="#glyph0-2" x="115.160156" y="90.600586"/>
</g>
<path style="fill:none;stroke-width:1.2;stroke-linecap:butt;stroke-linejoin:miter;stroke:rgb(0%,0%,100%);stroke-opacity:1;stroke-miterlimit:10;" d="M 78.039062 138.671875 L 66.164062 134.535156 "/>
<path style="fill:none;stroke-width:1.2;stroke-linecap:butt;stroke-linejoin:miter;stroke:rgb(0%,0%,0%);stroke-opacity:1;stroke-miterlimit:10;" d="M 66.164062 134.535156 L 54.289062 130.402344 "/>
<path style="fill:none;stroke-width:1.2;stroke-linecap:butt;stroke-linejoin:miter;stroke:rgb(0%,0%,0%);stroke-opacity:1;stroke-miterlimit:10;" d="M 82.75 163.375 L 80.394531 151.023438 "/>
<path style="fill:none;stroke-width:1.2;stroke-linecap:butt;stroke-linejoin:miter;stroke:rgb(0%,0%,100%);stroke-opacity:1;stroke-miterlimit:10;" d="M 80.394531 151.023438 L 78.039062 138.671875 "/>
<path style=" stroke:none;fill-rule:nonzero;fill:rgb(100%,100%,100%);fill-opacity:1;" d="M 75.039062 133.171875 L 82.039062 133.171875 L 82.039062 144.171875 L 75.039062 144.171875 Z M 75.039062 133.171875 "/>
<g style="fill:rgb(0%,0%,100%);fill-opacity:1;">
  <use xlink:href="#glyph0-2" x="75.039062" y="141.834961"/>
</g>
<path style="fill:none;stroke-width:1.2;stroke-linecap:butt;stroke-linejoin:miter;stroke:rgb(0%,0%,0%);stroke-opacity:1;stroke-miterlimit:10;" d="M 54.289062 130.402344 L 35.25 146.832031 "/>
<path style="fill:none;stroke-width:1.2;stroke-linecap:butt;stroke-linejoin:miter;stroke:rgb(0%,0%,0%);stroke-opacity:1;stroke-miterlimit:10;" d="M 35.25 146.832031 L 37.605469 159.183594 "/>
<path style="fill:none;stroke-width:1.2;stroke-linecap:butt;stroke-linejoin:miter;stroke:rgb(100%,0%,0%);stroke-opacity:1;stroke-miterlimit:10;" d="M 37.605469 159.183594 L 39.960938 171.535156 "/>
<path style="fill:none;stroke-width:1.2;stroke-linecap:butt;stroke-linejoin:miter;stroke:rgb(100%,0%,0%);stroke-opacity:1;stroke-miterlimit:10;" d="M 39.960938 171.535156 L 51.835938 175.671875 "/>
<path style="fill:none;stroke-width:1.2;stroke-linecap:butt;stroke-linejoin:miter;stroke:rgb(0%,0%,0%);stroke-opacity:1;stroke-miterlimit:10;" d="M 51.835938 175.671875 L 63.710938 179.808594 "/>
<path style=" stroke:none;fill-rule:nonzero;fill:rgb(100%,100%,100%);fill-opacity:1;" d="M 35.960938 166.035156 L 43.960938 166.035156 L 43.960938 177.035156 L 35.960938 177.035156 Z M 35.960938 166.035156 "/>
<g style="fill:rgb(100%,0%,0%);fill-opacity:1;">
  <use xlink:href="#glyph0-3" x="35.960938" y="174.698242"/>
</g>
<path style="fill:none;stroke-width:1.2;stroke-linecap:butt;stroke-linejoin:miter;stroke:rgb(0%,0%,0%);stroke-opacity:1;stroke-miterlimit:10;" d="M 63.710938 179.808594 L 82.75 163.375 "/>
</g>
</svg>

<svg xmlns="http://www.w3.org/2000/svg" xmlns:xlink="http://www.w3.org/1999/xlink" width="300pt" height="300pt" viewBox="0 0 300 300"><defs><symbol overflow="visible"><path d="M.453 1.594v-7.938h4.5v7.938zm.5-.5h3.5v-6.938h-3.5zm0 0"/></symbol><symbol overflow="visible" id="a"><path d="M.89-6.563h3.766v.75h-2.89v1.938h2.61v.734h-2.61V0H.89zm0 0"/></symbol><symbol overflow="visible" id="b"><path d="M.89-6.563H2.08l2.906 5.485v-5.484h.86V0H4.656L1.75-5.484V0H.89zm0 0"/></symbol><symbol overflow="visible" id="c"><path d="M3.547-5.953c-.65 0-1.164.242-1.547.72-.375.48-.563 1.13-.563 1.952 0 .835.188 1.49.563 1.967.383.48.898.72 1.547.72.644 0 1.156-.24 1.53-.72.376-.476.564-1.132.564-1.968 0-.822-.187-1.474-.562-1.954-.375-.477-.887-.72-1.53-.72zm0-.734c.914 0 1.648.312 2.203.937.55.617.828 1.438.828 2.47 0 1.042-.277 1.87-.828 2.483-.555.617-1.29.922-2.203.922-.93 0-1.668-.305-2.22-.922C.774-1.41.5-2.237.5-3.28c0-1.033.273-1.853.828-2.47.55-.625 1.29-.938 2.22-.938zm0 0"/></symbol></defs><g><path fill="#fff" d="M0 0h300v300H0z"/><path d="M264.75 102.418l-8.61 9.168" stroke-width="1.2" stroke="#3cc" stroke-miterlimit="10" fill="none"/><path d="M256.14 111.586l-8.61 9.164" stroke-width="1.2" stroke="#000" stroke-miterlimit="10" fill="none"/><path d="M261.75 96.918h6v11h-6zm0 0" fill="#fff"/><use xlink:href="#a" x="261.75" y="105.581" fill="#3cc"/><path d="M247.53 120.75l7.27 24.078M242.594 124.867l5.816 19.262M223.05 115.008l24.48 5.742M254.8 144.828l-17.218 18.332M237.582 163.16l-24.484-5.746M236.488 156.824l-19.59-4.597M213.098 157.414l-7.266-24.074M213.098 157.414l-17.215 18.332M205.832 133.34l17.22-18.332M211.867 135.555l13.774-14.664M195.883 175.746l2.355 12.352" stroke-width="1.2" stroke="#000" stroke-miterlimit="10" fill="none"/><path d="M198.238 188.098l2.356 12.35" stroke-width="1.2" stroke="#00f" stroke-miterlimit="10" fill="none"/><path d="M170.934 172.594l24.95 3.152M172.684 178.777l19.96 2.524" stroke-width="1.2" stroke="#000" stroke-miterlimit="10" fill="none"/><path d="M200.594 200.45l-11.02 6.058" stroke-width="1.2" stroke="#00f" stroke-miterlimit="10" fill="none"/><path d="M189.574 206.508l-11.02 6.054" stroke-width="1.2" stroke="#000" stroke-miterlimit="10" fill="none"/><path d="M195.54 196.477l-8.817 4.843" stroke-width="1.2" stroke="#00f" stroke-miterlimit="10" fill="none"/><path d="M186.723 201.32l-8.817 4.848" stroke-width="1.2" stroke="#000" stroke-miterlimit="10" fill="none"/><path d="M197.594 194.95h7v11h-7zm0 0" fill="#fff"/><use xlink:href="#b" x="197.594" y="203.612" fill="#00f"/><path d="M178.555 212.563l-9.168-8.606" stroke-width="1.2" stroke="#000" stroke-miterlimit="10" fill="none"/><path d="M169.387 203.957l-9.164-8.61M160.223 195.348l5.355-11.38" stroke-width="1.2" stroke="#f00" stroke-miterlimit="10" fill="none"/><path d="M165.578 183.97l5.356-11.376" stroke-width="1.2" stroke="#000" stroke-miterlimit="10" fill="none"/><path d="M156.223 189.848h8v11h-8zm0 0" fill="#fff"/><use xlink:href="#c" x="156.223" y="198.511" fill="#f00"/><path d="M170.934 172.594l-12.118-22.04M158.816 150.555l13.032-21.512M158.816 150.555l-25.14-.532M156.43 144.586l-20.118-.426M171.848 129.043l-12.114-22.04M165.45 129.688l-9.692-17.63M159.734 107.004l-25.144-.527M134.59 106.477l-6.516 10.753" stroke-width="1.2" stroke="#000" stroke-miterlimit="10" fill="none"/><path d="M128.074 117.23l-6.512 10.754M118.16 87.438l8.215 9.52" stroke-width="1.2" stroke="#00f" stroke-miterlimit="10" fill="none"/><path d="M126.375 96.957l8.215 9.52" stroke-width="1.2" stroke="#000" stroke-miterlimit="10" fill="none"/><path d="M115.32 93.207l6.575 7.613" stroke-width="1.2" stroke="#00f" stroke-miterlimit="10" fill="none"/><path d="M121.895 100.82l6.574 7.618" stroke-width="1.2" stroke="#000" stroke-miterlimit="10" fill="none"/><path d="M121.563 127.984l6.054 11.02" stroke-width="1.2" stroke="#00f" stroke-miterlimit="10" fill="none"/><path d="M127.617 139.004l6.06 11.02" stroke-width="1.2" stroke="#000" stroke-miterlimit="10" fill="none"/><path d="M121.563 127.984l-12.243-2.87" stroke-width="1.2" stroke="#00f" stroke-miterlimit="10" fill="none"/><path d="M109.32 125.113l-12.242-2.87" stroke-width="1.2" stroke="#000" stroke-miterlimit="10" fill="none"/><path d="M118.563 122.484h7v11h-7zm0 0" fill="#fff"/><use xlink:href="#b" x="118.563" y="131.147" fill="#00f"/><path d="M97.078 122.242l-1.05-12.53" stroke-width="1.2" stroke="#000" stroke-miterlimit="10" fill="none"/><path d="M96.027 109.71l-1.054-12.53" stroke-width="1.2" stroke="#00f" stroke-miterlimit="10" fill="none"/><path d="M102.762 119.242l-.84-10.027" stroke-width="1.2" stroke="#000" stroke-miterlimit="10" fill="none"/><path d="M101.922 109.215l-.84-10.024" stroke-width="1.2" stroke="#00f" stroke-miterlimit="10" fill="none"/><path d="M97.078 122.242l-9.52 8.215" stroke-width="1.2" stroke="#000" stroke-miterlimit="10" fill="none"/><path d="M87.56 130.457l-9.52 8.215M94.973 97.18l23.187-9.743" stroke-width="1.2" stroke="#00f" stroke-miterlimit="10" fill="none"/><path d="M91.973 91.68h7v11h-7zm0 0" fill="#fff"/><use xlink:href="#b" x="91.973" y="100.343" fill="#00f"/><path d="M115.16 81.938h7v11h-7zm0 0" fill="#fff"/><use xlink:href="#b" x="115.16" y="90.601" fill="#00f"/><path d="M78.04 138.672l-11.876-4.137" stroke-width="1.2" stroke="#00f" stroke-miterlimit="10" fill="none"/><path d="M66.164 134.535l-11.875-4.133M82.75 163.375l-2.355-12.352" stroke-width="1.2" stroke="#000" stroke-miterlimit="10" fill="none"/><path d="M80.395 151.023l-2.356-12.35" stroke-width="1.2" stroke="#00f" stroke-miterlimit="10" fill="none"/><path d="M75.04 133.172h7v11h-7zm0 0" fill="#fff"/><use xlink:href="#b" x="75.039" y="141.835" fill="#00f"/><path d="M54.29 130.402l-19.04 16.43M35.25 146.832l2.355 12.352" stroke-width="1.2" stroke="#000" stroke-miterlimit="10" fill="none"/><path d="M37.605 159.184l2.356 12.35M39.96 171.535l11.876 4.137" stroke-width="1.2" stroke="#f00" stroke-miterlimit="10" fill="none"/><path d="M51.836 175.672l11.875 4.137" stroke-width="1.2" stroke="#000" stroke-miterlimit="10" fill="none"/><path d="M35.96 166.035h8v11h-8zm0 0" fill="#fff"/><use xlink:href="#c" x="35.961" y="174.698" fill="#f00"/><path d="M63.71 179.81l19.04-16.435" stroke-width="1.2" stroke="#000" stroke-miterlimit="10" fill="none"/></g></svg>
